public/icons/sign-in-man.svg

<svg width="66" height="186" viewBox="0 0 66 186" fill="none" xmlns="http://www.w3.org/2000/svg">
<path d="M7.74229 65.3091C7.97227 65.4141 8.19346 65.5375 8.40371 65.6779L29.4322 56.7095L30.1827 51.1741L38.5851 51.1228L38.0887 63.8181L10.3335 71.1527C10.2751 71.3455 10.2051 71.5345 10.1237 71.7188C9.72245 72.5744 9.07713 73.2925 8.26879 73.7828C7.46045 74.2732 6.52513 74.5139 5.58032 74.4748C4.63551 74.4357 3.72334 74.1185 2.95833 73.5631C2.19332 73.0077 1.6096 72.2388 1.28048 71.3529C0.951362 70.4671 0.891507 69.5038 1.10845 68.5841C1.32538 67.6644 1.80945 66.8292 2.49982 66.1835C3.1902 65.5377 4.05609 65.1103 4.98881 64.9547C5.92152 64.7991 6.87946 64.9224 7.74229 65.3091Z" fill="#FFB8B8"/>
<path d="M41.6412 180.352H35.8934L33.1592 158.198L41.6422 158.198L41.6412 180.352Z" fill="#FFB8B8"/>
<path d="M31.7881 178.711H42.8732V185.685H24.8086C24.8086 183.835 25.5439 182.062 26.8528 180.754C28.1617 179.446 29.937 178.711 31.7881 178.711Z" fill="#000"/>
<path d="M63.9959 178.729L58.2753 179.292L53.3799 157.513L61.8228 156.682L63.9959 178.729Z" fill="#FFB8B8"/>
<path d="M54.0288 178.061L65.0604 176.975L65.7445 183.916L47.7671 185.685C47.6773 184.774 47.768 183.854 48.034 182.977C48.3001 182.101 48.7363 181.285 49.3178 180.577C49.8992 179.869 50.6145 179.283 51.4228 178.851C52.2312 178.419 53.1167 178.151 54.0288 178.061Z" fill="#000"/>
<path d="M43.2408 27.6766C49.6005 27.6766 54.756 22.5249 54.756 16.1699C54.756 9.81493 49.6005 4.66321 43.2408 4.66321C36.8811 4.66321 31.7256 9.81493 31.7256 16.1699C31.7256 22.5249 36.8811 27.6766 43.2408 27.6766Z" fill="#FFB8B8"/>
<path d="M34.6093 175.872C34.1153 175.873 33.6368 175.7 33.2581 175.383C32.8794 175.066 32.6248 174.626 32.5394 174.139C29.5643 157.636 19.8395 103.676 19.607 102.181C19.6018 102.147 19.5994 102.112 19.5996 102.077V98.0537C19.5992 97.9071 19.6451 97.7642 19.7306 97.6451L21.0153 95.8471C21.0763 95.7606 21.1564 95.6893 21.2493 95.6385C21.3423 95.5877 21.4456 95.5589 21.5514 95.5543C28.8757 95.2112 52.8624 94.2056 54.0212 95.6522C55.1851 97.1062 54.7739 101.512 54.6796 102.38L54.6842 102.471L65.4606 171.337C65.5449 171.886 65.4095 172.446 65.0835 172.896C64.7576 173.347 64.2674 173.65 63.7189 173.742L56.9881 174.85C56.4868 174.931 55.9733 174.829 55.5409 174.563C55.1085 174.297 54.786 173.885 54.632 173.401C52.5502 166.754 45.5698 144.393 43.1505 135.741C43.1354 135.686 43.1008 135.639 43.0533 135.607C43.0057 135.576 42.9484 135.563 42.8921 135.571C42.8357 135.579 42.7843 135.608 42.7472 135.651C42.7102 135.694 42.6901 135.749 42.6908 135.806C42.8117 144.054 43.1038 165.098 43.2045 172.366L43.2155 173.148C43.22 173.678 43.0253 174.191 42.67 174.584C42.3148 174.978 41.8247 175.224 41.2967 175.274L34.8062 175.863C34.7402 175.869 34.6743 175.872 34.6093 175.872Z" fill="#000"/>
<path d="M35.9333 32.2011C33.9237 33.3948 32.7211 35.5884 32.0312 37.8207C30.7536 41.9533 29.9846 46.2261 29.7412 50.5446L29.0119 63.4751L19.9844 97.7546C27.8087 104.37 32.3221 102.867 42.8546 97.4553C53.3871 92.0441 54.5906 99.2596 54.5906 99.2596L56.6968 70.092L59.706 38.2194C59.0306 37.4067 58.2661 36.6721 57.4268 36.0296C54.6453 33.8684 51.4093 32.3662 47.9624 31.6362C44.5156 30.9062 40.9479 30.9674 37.5282 31.8154L35.9333 32.2011Z" fill="#3056D3"/>
<path d="M33.0009 72.2323C33.2437 72.3236 33.479 72.4338 33.7045 72.562L54.4968 62.1628L54.8419 56.5289L63.4188 55.938L63.8785 68.7806L36.0921 77.9628C35.8653 78.9353 35.3475 79.8156 34.6077 80.4868C33.8679 81.158 32.9411 81.5883 31.9507 81.7204C30.9602 81.8524 29.953 81.6801 29.0629 81.2262C28.1729 80.7723 27.4422 80.0584 26.9681 79.1795C26.494 78.3005 26.2989 77.2982 26.4087 76.3057C26.5186 75.3133 26.9282 74.3778 27.5831 73.6236C28.238 72.8695 29.1071 72.3324 30.0749 72.0839C31.0427 71.8353 32.0633 71.8871 33.0009 72.2323Z" fill="#FFB8B8"/>
<path d="M59.5549 38.3653C64.6706 40.1696 65.5718 59.7163 65.5718 59.7163C59.5534 56.4086 52.3311 61.8213 52.3311 61.8213C52.3311 61.8213 50.8265 56.7094 49.0209 50.0939C48.4757 48.2331 48.4106 46.2648 48.8314 44.372C49.2523 42.4793 50.1456 40.7237 51.4281 39.2688C51.4281 39.2688 54.4392 36.56 59.5549 38.3653Z" fill="#3056D3"/>
<path d="M53.5664 19.2129C52.1317 18.0659 50.1742 20.1507 50.1742 20.1507L49.0263 9.8282C49.0263 9.8282 41.8526 10.6869 37.2615 9.54167C32.6703 8.39643 31.953 13.6996 31.953 13.6996C31.7163 11.5574 31.6683 9.3986 31.8096 7.24803C32.0963 4.6674 35.8268 2.08676 42.4266 0.36619C49.0263 -1.35438 52.4695 6.10099 52.4695 6.10099C57.0612 8.39462 55.001 20.36 53.5664 19.2129Z" fill="#000"/>
</svg>

<svg width="66" height="186" fill="none" xmlns="http://www.w3.org/2000/svg"><path d="M7.742 65.31c.23.104.451.227.662.368l21.028-8.968.75-5.536 8.403-.051-.496 12.695-27.755 7.335a4.96 4.96 0 0 1-.21.566 4.796 4.796 0 0 1-4.544 2.756 4.8 4.8 0 0 1-4.3-3.122 4.791 4.791 0 0 1 3.709-6.398 4.801 4.801 0 0 1 2.753.354ZM41.641 180.352h-5.748l-2.734-22.154h8.483v22.154Z" fill="#FFB8B8"/><path d="M31.788 178.711h11.085v6.974H24.81a6.97 6.97 0 0 1 2.044-4.931 6.982 6.982 0 0 1 4.935-2.043Z" fill="#000"/><path d="m63.996 178.729-5.72.563-4.896-21.779 8.443-.831 2.173 22.047Z" fill="#FFB8B8"/><path d="m54.029 178.061 11.031-1.086.684 6.941-17.977 1.769a6.973 6.973 0 0 1 6.262-7.624Z" fill="#000"/><path d="M43.24 27.677c6.36 0 11.516-5.152 11.516-11.507 0-6.355-5.156-11.507-11.515-11.507-6.36 0-11.515 5.152-11.515 11.507 0 6.355 5.155 11.507 11.515 11.507Z" fill="#FFB8B8"/><path d="M34.61 175.872a2.098 2.098 0 0 1-2.07-1.733c-2.976-16.503-12.7-70.463-12.933-71.958a.665.665 0 0 1-.007-.104v-4.023c0-.147.045-.29.13-.409l1.285-1.798a.693.693 0 0 1 .536-.293c7.325-.343 31.311-1.348 32.47.098 1.164 1.454.753 5.86.659 6.728l.004.091 10.777 68.866a2.11 2.11 0 0 1-1.742 2.405l-6.73 1.108a2.117 2.117 0 0 1-2.357-1.449c-2.082-6.647-9.062-29.008-11.481-37.66a.235.235 0 0 0-.46.065c.12 8.248.413 29.292.514 36.56l.01.782a2.115 2.115 0 0 1-1.918 2.126l-6.49.589a2.178 2.178 0 0 1-.198.009Z" fill="#000"/><path d="M35.933 32.201c-2.01 1.194-3.212 3.387-3.902 5.62a53.219 53.219 0 0 0-2.29 12.724l-.73 12.93-9.027 34.28c7.825 6.615 12.338 5.112 22.87-.3 10.533-5.41 11.737 1.805 11.737 1.805l2.106-29.168 3.009-31.873a14.137 14.137 0 0 0-2.28-2.19 23.29 23.29 0 0 0-19.898-4.214l-1.595.386Z" fill="#3056D3"/><path d="M33 72.232c.244.092.479.202.705.33l20.792-10.4.345-5.633 8.577-.591.46 12.843-27.787 9.182a4.915 4.915 0 0 1-4.141 3.757 4.925 4.925 0 0 1-4.983-2.54 4.915 4.915 0 0 1 3.107-7.096 4.924 4.924 0 0 1 2.926.148Z" fill="#FFB8B8"/><path d="M59.555 38.365c5.116 1.805 6.017 21.351 6.017 21.351-6.019-3.307-13.24 2.105-13.24 2.105s-1.505-5.112-3.311-11.727a11.485 11.485 0 0 1 2.407-10.825s3.011-2.709 8.127-.904Z" fill="#3056D3"/><path d="M53.566 19.213c-1.434-1.147-3.392.938-3.392.938L49.026 9.828s-7.173.859-11.765-.286c-4.59-1.146-5.308 4.158-5.308 4.158a36.784 36.784 0 0 1-.143-6.452c.286-2.58 4.017-5.161 10.617-6.882 6.6-1.72 10.042 5.735 10.042 5.735 4.592 2.294 2.532 14.259 1.097 13.112Z" fill="#000"/></svg>
